Adwaita++/emblems/16/vcs-locally-modified-unstaged.svg

<svg fill="none" height="16" viewBox="0 0 16 16" width="16" xmlns="http://www.w3.org/2000/svg">
  <path d="m13.6 1h-11.2c-.7732 0-1.4.6268-1.4 1.4v11.2c0 .7732.6268 1.4 1.4 1.4h11.2c.7732 0 1.4-.6268 1.4-1.4v-11.2c0-.7732-.6268-1.4-1.4-1.4z" fill="#a51d2d"/>
  <path d="m8.95042 5.53541c0 .76487-.02832 1.47781-.08498 2.13881s-.1322 1.33145-.22663 2.01133h-1.61473c-.09443-.67988-.17469-1.35033-.24079-2.01133-.05666-.661-.08499-1.37394-.08499-2.13881v-2.53541h2.25212zm.18414 6.16149c0 .4155-.13692.7365-.41076.9632-.2644.2266-.56658.3399-.90652.3399s-.64684-.1133-.92068-.3399c-.2644-.2267-.3966-.5477-.3966-.9632s.1322-.7366.3966-.9632c.27384-.2266.58074-.3399.92068-.3399s.64212.1133.90652.3399c.27384.2266.41076.5477.41076.9632z" fill="#f6f5f4"/>
</svg>

<svg xmlns="http://www.w3.org/2000/svg" fill="none" width="16" height="16" viewBox="0 0 16 16">
 <path fill="url(#paint0_linear)" d="M13.6 1H2.4C1.6268 1 1 1.6268 1 2.4V13.6C1 14.3732 1.6268 15 2.4 15H13.6C14.3732 15 15 14.3732 15 13.6V2.4C15 1.6268 14.3732 1 13.6 1Z"/>
 <path fill="url(#paint1_linear)" d="M8.95042 5.53541C8.95042 6.30028 8.9221 7.01322 8.86544 7.67422C8.80878 8.33522 8.73324 9.00567 8.63881 9.68555H7.02408C6.92965 9.00567 6.84939 8.33522 6.78329 7.67422C6.72663 7.01322 6.6983 6.30028 6.6983 5.53541V3H8.95042V5.53541ZM9.13456 11.6969C9.13456 12.1124 8.99764 12.4334 8.7238 12.6601C8.4594 12.8867 8.15722 13 7.81728 13C7.47734 13 7.17044 12.8867 6.8966 12.6601C6.6322 12.4334 6.5 12.1124 6.5 11.6969C6.5 11.2814 6.6322 10.9603 6.8966 10.7337C7.17044 10.5071 7.47734 10.3938 7.81728 10.3938C8.15722 10.3938 8.4594 10.5071 8.7238 10.7337C8.99764 10.9603 9.13456 11.2814 9.13456 11.6969Z"/>
 <defs>
  <linearGradient id="paint0_linear" x1="1" x2="15" y1="8" y2="8" gradientUnits="userSpaceOnUse">
   <stop stop-color="#A51D2D"/>
  </linearGradient>
  <linearGradient id="paint1_linear" x1="6.5" x2="9.135" y1="8" y2="8" gradientUnits="userSpaceOnUse">
   <stop stop-color="#F6F5F4"/>
  </linearGradient>
 </defs>
</svg>
